!!!COM: Bach, Johann Sebastian
!!!OPR: Inventio
!!!OTL: Inventio 1
!!!XEN: Two-part Inventions [for keyboard]
!!!ONM: No. 1
!!!ONB: In C major.
!!!SCT: BWV 772
!!!YEC: Copyright 1994, David Huron
!!!YEM: Rights to all derivative electronic formats reserved.
!! Performance duration: 1:29; performance tempo: 59.3 quarter-notes per minute.
!! (Andras Schiff, piano, "Two-Part Inventions BWV 772a-786; Three-part
!! Inventions BWV 787-801" Decca 411 974-2)
**kern	**kern
*staff2	*staff1
*clefF4	*clefG2
*k[]	*k[]
*C:	*C:
*M4/4	*M4/4
*MM59.3	*MM59.3
=1-	=1-
2r	16r
.	16gg
.	16e
.	16ccc
.	16ee
.	16dd
.	16a
.	16b
16r	8b
16GG	.
16f	8b
16C	.
16AA	8gM
16F	.
16c	8ff
16f	.
=2	=2
8f	16gg
.	16dd
8A	16cc
.	16e
4r	16ff
.	16ee
.	16a
.	16a
16r	8dd
16e	.
16A	8dd
16B	.
16G	8bM
16D	.
16F	8dd
16G	.
=3	=3
8e	16b
.	16b
8c	16dd
.	16b
8F	16b
.	16ee
8D	16g
.	16aa
8c	16dd
.	16b
8C	16ff
.	16d
8F	16dd
.	16a
8E	16ff
.	16dd
=4	=4
8A	16ccc
.	16dd
8e	16ff
.	16b
8f#	16f
.	16cc
8B	16ee
.	16cc
8d	16ee
.	16gg
8A	16b
.	16a
[4B	16e#
.	16b
.	16ee
.	16a
=5	=5
16B]	8gg
16E	.
16C	8ff
16c#	.
16e	8.ggW
16E	.
16BB#	.
16E	16g
8E	16dd
.	16ee
8G	16cc
.	16ee#
8B	16ff
.	16g
8G	16b#
.	16a
=6	=6
8G	16ff
.	16dd
8F#	16ff
.	16g
8f	16cc
.	16ff
8d	16b
.	16aa
8.d	16cc
.	32b
.	32ee
.	16f
16B	16aa
8F	8ddM
8B	16ee
.	16e
=7	=7
16r	8ff
16A	.
16c	8r
16D	.
16c	4r
16d	.
16g	.
16g	.
8B	16r
.	16b
8G	16b
.	16a
8g#	16ff
.	16a
8c	16dd
.	16a
=8	=8
16e	8ff#M
16G	.
16c	8r
16A#	.
16DD	4r
16d	.
16G#	.
16E	.
8B	16r
.	16ee
8c	16dd
.	16dd
8A	16ee
.	16dd
8D	16f
.	16cc
=9	=9
16b	8cc
16G	.
16d	8r
16E	.
16d	4r
16A	.
16G	.
16f	.
8A	16r
.	16a
8E	16c
.	16ff
8e	16gg
.	16dd
8d	16dd
.	16ff
=10	=10
16a	8gg
16F	.
16e	8r
16F	.
16E	4r
16c	.
16f	.
16GG	.
8c	16r
.	16cc
8d	16a
.	16b
8F	16g
.	16cc
8a	16g#
.	16gg
=11	=11
16f	8b
16c-	.
16G	8cc#
16E	.
16e	8gg
16e	.
16D	8ee
16D-	.
16A	8ee
16e	.
16B	8ee
16e	.
16E	8ddn
16c	.
16A	8ff#
16f	.
=12	=12
16G	8ee
16A	.
16d	8ee#
16B	.
16g	8b#
16a	.
16C	8a
16B	.
16BB	8ff
16F	.
16A	8cc
16A	.
16a#	[4cc
16C	.
16c	.
16f	.
=13	=13
8E	16cc]
.	16e
8c	16gg#
.	16f#
8.eW	16gg
.	16g#
.	16dd#
16B	16aa
16A	16g
16c	16a
16d	16g
16gn	16cc
16d#	16g
16d	16ff
16A#	16aa
16G	16cc
=14	=14
16BB	16bb
16D	16aa
16F	16g#
16D	16f
16B	16cc
16c	16a
16A	16g
16G	16d
8G	16f#
.	16cc
8e	16ff
.	16cc
8B	8a
8B	16dd
.	16aa
=15	=15
8e	16bb
.	16dd
8e	16gg
.	16aa
4r	16cc
.	16gg
.	16b
.	16a
16r	[2f
16CC	.
16c	.
16E	.
16B	.
16g	.
16d#	.
16D	.
=16	=16
[2b	16gg]
.	16cc
.	16gg
.	16dd
.	16ee
.	16cc
.	16bb
.	16ee
16G]	[2dd
16D	.
16d	.
16f	.
16c	.
16G	.
16E	.
16AA	.
=17	=17
[2B	16a]
.	16gg
.	16e
.	16g
.	16ee
.	16aa
.	16cc
.	16a
16D]	[2a
16B	.
16f	.
16c	.
16g	.
16f	.
16AA	.
16B	.
=18	=18
[2A	16d]
.	16b
.	16f
.	16cc
.	16ee
.	16ff
.	16g
.	16gg
16E]	[2a
16e	.
16c	.
16c-	.
16C	.
16d	.
16A-	.
16d	.
=19	=19
8d	16b]
.	16cc
8g-	16ee
.	16gg
8a	16gg
.	16dd
8GG	16cc
.	16c
8f	16dd
.	16b
8B	16ee
.	16ee
8d	16b
.	16cc
8GG-	16cc
.	16b
=20	=20
8g	16gg
.	16ff
8E	16cc
.	16d
8G	16aa
.	16a
8g	16dd
.	16f
16F	8e
16G	.
16A	8f
16B	.
16d	8dd
16F	.
16B	16b
16BB	16cc
=21	=21
8D	16b
.	16ee-
8e	16dd
.	16g
8c	16cc
.	16g
8F	16ff
.	16gg-
16A	16ee
16D	16ddn
16d	16dd
16e	16a
8e	16ee
.	16ff
8G	16cc
.	16g
=22	=22
1c; 1C;	1ff; 1g; 1cc;
==|!	==|!
*-	*-
!!!CDT: 1685/3//-1750/7/28
!!!OCY: Deutschland
!!!AGN: polyphony
!!!AST: baroque
!!!AMT: simple quadruple
!!!SCA: Bach-Werke-Verzeichnis
!!!YOR: Bach Gesellschaft
!!!AIN: cemb; clavi
!!!EEV: 1.0
!!!RDT: 1986 November
!!!YER: 1995 May 22
!!!YEN: Canada
!!!EFL: 1/15
!!!EED: David Huron
